X:241
T:Quick Step. JBut.240, A
B:John Buttrey MS, poss. Lincolnshire, early 19thC
S:https://buttreymilitarysocialtunes1800.wordpress.com/
Z:vmp.Mike Hicken 2019 www.village-music-project.org.uk
M:6/8
L:1/8
Q:3/8=110
N: NB1 Rest inserted to give correct repeat.
N:NB2. BB/B/ B2A2 in ms
K:G
D|GAG BAG|d2d d2g|ece dcB|AGA B2D|
GAG BAG|d2d d2g|ece dcB|AGA B2:|
|: "^NB1" z|BBB B2A|B2A B2A|ccc c2B|c2B c2B|
GAG BAG|d2B g2d|ece dcB|cBA G2:|

